// Cosmic Meditation
// by Jackie Fazekas
// Written April 2018

// To play this piece, start the server, then highlight and run this code.

(
// load sounds
"Initializing".postln;
"...".postln;

"meditationMemory.scd".loadRelative;

"meditationBees.scd".loadRelative;
"meditationFall.scd".loadRelative;
"meditationBells.scd".loadRelative;

// start GUI
"meditationGUI.scd".loadRelative;
)
